packages/swarm-icons/src/icons/large/Youtube.svg

<?xml version="1.0" encoding="UTF-8"?>
<svg width="28px" height="28px" viewBox="0 0 28 28" version="1.1" xmlns="http://www.w3.org/2000/svg" xmlns:xlink="http://www.w3.org/1999/xlink">
    <!-- Generator: Sketch 61.2 (89653) - https://sketch.com -->
    <title>28dp/Logo Youtube</title>
    <desc>Created with Sketch.</desc>
    <g id="28dp/Logo-Youtube" stroke="none" stroke-width="1" fill="none" fill-rule="evenodd">
        <path d="M14.3394611,5.00060129 C15.8995512,5.00774846 22.3788601,5.06611695 24.1582252,5.54279296 C25.2769205,5.84178231 26.1578368,6.72291269 26.4568262,7.84139395 C27.0000151,9.86925655 27.0000151,14.0996241 27.0000151,14.0996241 L27.0000024,14.1098346 C26.9995717,14.3395733 26.9844954,18.3881384 26.4568262,20.3578542 C26.1578368,21.4763354 25.2769205,22.3576798 24.1582252,22.6564551 C22.3374795,23.1444088 15.5956461,23.1942 14.23872,23.1992808 L13.7610146,23.1992808 C12.4041237,23.1942 5.66246288,23.1444088 3.84171721,22.6564551 C2.72302193,22.3576798 1.84210558,21.4763354 1.54311623,20.3578542 C1.06181646,18.5619369 1.00681077,15.0378411 1.00052441,14.2557904 L1.00052441,13.9434651 C1.00681077,13.1614503 1.06181646,9.63750082 1.54311623,7.84139395 C1.84210558,6.72291269 2.72302193,5.84178231 3.84171721,5.54279296 C5.62108229,5.06611695 12.1002263,5.00774846 13.6602761,5.00060129 Z M11.3999196,10.1994932 L11.3999196,17.9997549 L18.1546818,14.0998381 L11.3999196,10.1994932 Z" id="Color" fill="#212121" fill-rule="nonzero"></path>
    </g>
</svg>

<svg width="28" height="28" xmlns="http://www.w3.org/2000/svg"><path d="M14.34 5c1.56.008 8.039.066 9.818.543 1.119.299 2 1.18 2.299 2.298C27 9.87 27 14.1 27 14.1v.01c0 .23-.016 4.278-.543 6.248a3.256 3.256 0 01-2.299 2.298c-1.82.488-8.562.538-9.92.543h-.477c-1.357-.005-8.099-.055-9.92-.543a3.256 3.256 0 01-2.298-2.298c-.481-1.796-.536-5.32-.542-6.102v-.313c.006-.782.06-4.305.542-6.102.3-1.118 1.18-2 2.299-2.298C5.622 5.066 12.1 5.008 13.66 5zm-2.94 5.2V18l6.755-3.9-6.755-3.9z" fill="#212121" fill-rule="nonzero"/></svg>
